X: 8155
T: Cook In The Kitchen, The
R: jig
M: 6/8
K: Dmajor
|:A,DD DFD|C2E E2B|AFF GEE|FDD ECE|
A,DD DFD|C2E E2B|AFF GFE|1 D3 D2C:|2 D3 DFA||
|:d2d dcB|c2c cBA|B2A Bcd|ecB ABc|
dcd FGA|BAB EFG|A2F EFE|1 D3 DFA:|2 D3 D2C||

